X:2427
T:One Moonlight Night 
C:Traditional
O:Isle of Man
C:Coll. Mona Douglas 
Z:Kiaull Vannin 427 
M:4/4 
L:1/8 
Q:80 
K:D 
E/F/|G2 G2 A3 D|E2 E2 E3 F|B2 e2 d2 (c>B)|G2 A2 B3 B| 
B2 e2 d2 c>B|A2 D2 D3 E/F/|G2 G2 B3 B/A/|F2 G2 E3|| 

